X:1
T:Mirate in sul mattin
T:Piero Benedetti
T:Source : Musische di Piero Benedetti---Fiorenza---Heredes di C.Marescotti---1611. Editor : André Vierendeels (21/05/15).
T:Notes : Original clefs : C1, F4 Figures in BC are notated in original print 
T:Mirate in sul mattin
C:Piero Benedetti
%%score 1 2
L:1/8
Q:1/4=80
M:4/4
K:F
V:1 treble nm="Soprano" snm="S"
V:2 bass nm="BC" snm="BC"
V:1
 z2 G2 B4 | B4 B4 | z dBA B4 | z2 _e4 dc | d4 d4 | z2 AA c2 BA | A4 A4 | z dBG A4 | z2 dd e4 | %9
w: Mi- *|ra- te|in sul mat- tin|can- di- da|splen- de|lu- ci- di'af- fan- na|stel- la,|non ve- ner non|ma lu- ci'al|
 f2 _ed c4 | c4 z AAA | d3 G A4 | A2 AA A4 | G4 z4 | z2 c2 FFFG | A4 z AcF | G4 G4 | d3 c B2 AG | %18
w: _ ta no- vel-|la, che di so-|vra- no'a- mor|gl'a- ni- mi'ac- cen-|de,|quan- ta se- re- ni-|ta dol- ci dis-|con- de,|fug- ga- t'o- gni tem-|
 A4 A2 z A | d3 c c3 A | F4 F4 | z2 dd d4- | d2 B>A A4 | A4 z EFD | E4 E4 | z ccd B4 | %26
w: pe- sta il|Ciel el mar s'a-|re- sta|l'on- de po-|* san tran- quel-|le han pa- ce'i|ven- ti,|che non han tre-|
 B2 z A c3 d | A3 A A4 | G8 |] %29
w: gua- i miei so-|spir- do- len-|ti.|
V:2
 G,,8 | G,,8 | G,,8 |"^b" C,8 | G,8 | F,4 E,4 | F,8 | G,4 D,4 | B,,6 C,D, | _E,4 F,4 | F,8 | %11
"^#" ^F,2 G,2 D,4 |"^4""^#" ^C,4 D,2 D,2 |"^-natural" G,,8 | F,,8 | F,,8 | C,8 | G,,8 |"^#" D,8 | %19
"^#" D,2 E,2 F,4 | F,8 | B,,6 ^F,,2 |"^#" G,,4 D,4 |"^#""^#" D,4 A,,4 |"^#" A,,8 | F,,2 F,2 G,4 | %26
 G,4 E,2 =B,,2 |"^4""^#" ^C,4 D,2 D,2 | G,,8 |] %29

